icons/sessions/niri.svg

<?xml version="1.0" encoding="UTF-8"?>
<svg viewBox="0 0 512 512" xmlns="http://www.w3.org/2000/svg">
 <path d="m345.79 465.98c0 22.103-11.052 44.206-88.413 44.206s-88.412-22.103-88.412-44.206c0-33.155 22.103-55.258 88.412-55.258 66.31 0 88.413 22.103 88.413 55.258z" fill="#fff"/>
 <path d="m168.97 1.814c44.206 0 221.03 132.62 221.03 243.13 0 74.591-34.96 107.23-65.555 121.51-23.177 10.819-29.598-3.608-16.707-25.815 8.661-14.922 15.953-32.98 15.953-51.487 0-33.155-11.051-55.258-33.155-77.361-22.103-22.103-50.494-33.155-66.309-33.155-22.103 0-33.155 64.966-33.155 99.464 0 27.489 8.205 52.243 16.452 70.18 7.777 16.917 1.266 28.537-16.176 22.121-19.056-7.008-41.906-20.84-55.534-48.095-22.103-44.206-11.051-107.82-11.051-165.77 0-88.413 0-154.72 44.206-154.72z" fill="#fff"/>
</svg>

<svg width="512" height="512" viewBox="0 0 512 512" fill="none" xmlns="http://www.w3.org/2000/svg">
<path d="M345.794 465.98C345.794 488.083 334.742 510.186 257.381 510.186C180.02 510.186 168.969 488.083 168.969 465.98C168.969 432.825 191.072 410.722 257.381 410.722C323.691 410.722 345.794 432.825 345.794 465.98Z" fill="white"/>
<path d="M168.969 1.81396C213.175 1.81396 390 134.433 390 244.948C390 319.539 355.04 352.176 324.445 366.457C301.268 377.276 294.847 362.849 307.738 340.642C316.399 325.72 323.691 307.662 323.691 289.155C323.691 256 312.64 233.897 290.536 211.794C268.433 189.691 240.042 178.639 224.227 178.639C202.124 178.639 191.072 243.605 191.072 278.103C191.072 305.592 199.277 330.346 207.524 348.283C215.301 365.2 208.79 376.82 191.348 370.404C172.292 363.396 149.442 349.564 135.814 322.309C113.711 278.103 124.763 214.486 124.763 156.536C124.763 68.1234 124.763 1.81396 168.969 1.81396Z" fill="white"/>
</svg>
